X:236
T:Paddy Fahey's
R:jig
M:6/8
L:1/8
K:Bb
BdB cAF | BAB cde | fbg afc | BAB cAF | B2B cAF |
BAB cde |1 fbg afg | ecA B2F :|2 fbg afc | BAB cAF || B2B cAF | BAB cde | fbg afg | ecA B2d ||
fef Bdf | ecA BFD | E2G DGB | Acf bge |
f2f Bdf | ecA BAD | EGc DFB | AGA B2d |
B/2d/2fb afd | gec fdB | EGc DGB | Acf bge |
f2b afa | geg fdB | EGc DFB | AGA B2F ||
